sharp/svg/insert_chart_outlined.svg

<svg xmlns="http://www.w3.org/2000/svg" width="24" height="24"><g fill="currentColor"><path d="M9 17H7v-7h2v7zm4 0h-2V7h2v10zm4 0h-2v-4h2v4zm2 2H5V5h14v14zm2-16H3v18h18V3z"/></g></svg>

<?xml version="1.0" encoding="utf-8"?>
<!-- Generator: Adobe Illustrator 19.1.0, SVG Export Plug-In . SVG Version: 6.00 Build 0)  -->
<svg version="1.1" xmlns="http://www.w3.org/2000/svg" xmlns:xlink="http://www.w3.org/1999/xlink" x="0px" y="0px" width="24px"
	 height="24px" viewBox="0 0 24 24" enable-background="new 0 0 24 24" xml:space="preserve">
<g id="Bounding_Boxes" display="none">
	<g id="ui_x5F_spec_x5F_header_copy_3" display="inline">
	</g>
	<path display="inline" fill="none" d="M0,0h24v24H0V0z"/>
</g>
<g id="Sharp" fill="currentColor">
	<g id="ui_x5F_spec_x5F_header_copy_4">
	</g>
	<path d="M9,17H7v-7h2V17z M13,17h-2V7h2V17z M17,17h-2v-4h2V17z M19,19H5V5h14V19z M21,3H3v18h18V3z"/>
</g>
</svg>
